director/assets/img/dead-document.svg

<svg fill="none" height="179" viewBox="0 0 154 179" width="154" xmlns="http://www.w3.org/2000/svg" xmlns:xlink="http://www.w3.org/1999/xlink"><clipPath id="a"><path d="m0 0h154v179h-154z"/></clipPath><g clip-path="url(#a)"><path clip-rule="evenodd" d="m116.726 11.1171h-105.6559v151.4179l2.9426 2.956 17.0956-17.169c2.242-2.251 5.7452-2.251 7.8471 0l17.0956 17.169 17.0955-17.169c2.242-2.251 5.7452-2.251 7.8471 0l17.0956 17.169 17.0958-17.169c2.242-2.251 5.745-2.251 7.847 0l17.095 17.169 2.943-2.956v-125.1026zm-111.1209-11.1171h113.3629c1.542 0 2.943.703616 3.924 1.68868l29.426 29.55192c1.121 1.1258 1.682 2.533 1.682 3.9402v129.7472c0 1.548-.701 2.955-1.682 3.94l-8.407 8.443c-2.242 2.252-5.745 2.252-7.847 0l-17.096-17.168-17.095 17.168c-2.2424 2.252-5.7456 2.252-7.8475 0l-16.9554-17.027-17.0956 17.168c-2.242 2.252-5.7452 2.252-7.8471 0l-17.0956-17.168-17.0955 17.168c-2.242 2.252-5.7452 2.252-7.8471 0l-8.40767-8.443c-1.12102-1.126-1.68153-2.533-1.68153-3.941v-159.43907c0-3.09591 2.52229-5.62893 5.6051-5.62893z" fill="#2468ef" fill-rule="evenodd"/><path clip-rule="evenodd" d="m5.60498 5.62891h113.36302l29.427 29.55189v129.7472l-8.408 8.443-21.019-20.968-21.0191 20.968-20.879-20.968-21.0191 20.968-21.0191-20.968-21.0191 20.968-8.40762-8.443z" fill="#fff" fill-rule="evenodd"/><path clip-rule="evenodd" d="m113.363 35.1808v-29.55187c0-1.40723.561-2.81446 1.682-3.94025 2.242-2.251573 5.745-2.251573 7.847 0l29.427 29.55192c.981.985 1.681 2.3923 1.681 3.9402 0 3.0959-2.522 5.629-5.605 5.629h-29.427c-3.082 0-5.605-2.5331-5.605-5.629zm11.21-16.0424v10.4135h10.51z" fill="#2468ef" fill-rule="evenodd"/><path clip-rule="evenodd" d="m118.968 5.62891v29.55189h29.427z" fill="#d3e1fc" fill-rule="evenodd"/><path clip-rule="evenodd" d="m56.0508 162.957-21.0191-21.108-21.0191 21.108-8.40762-8.443v10.414l8.40762 8.443 21.0191-20.968 21.0191 20.968 21.0191-20.968 20.879 20.968 21.0191-20.968 21.019 20.968 8.408-8.443v-10.414l-8.408 8.443-21.019-21.108-21.0191 21.108-20.879-21.108z" fill="#d3e1fc" fill-rule="evenodd"/><g fill="#2468ef"><path d="m58.7002 42.4587-20.8076 20.8961 3.9633 3.9802 20.8077-20.8961z"/><path d="m41.8559 42.4612-3.9633 3.9802 20.8076 20.8961 3.9634-3.9802z"/><path d="m112.09 42.4657-20.8073 20.8962 3.9634 3.9802 20.8079-20.8961z"/><path d="m95.2471 42.4676-3.9634 3.9802 20.8073 20.8962 3.964-3.9803z"/><path d="m35.1722 93.1589c-1.5414 0-2.8026-1.2665-2.8026-2.8145 0-1.5479 1.2612-2.8144 2.8026-2.8144h83.6558c1.542 0 2.803 1.2665 2.803 2.8144 0 1.548-1.261 2.8145-2.803 2.8145z"/><path d="m116.025 93.1587h-17.2353v8.7253c0 2.392.9809 4.503 2.5223 6.051 1.541 1.548 3.783 2.533 6.025 2.533 2.383 0 4.485-.985 6.026-2.533s2.522-3.8 2.522-6.051v-8.7253zm-20.0379-5.4882h22.8409 2.802v2.8145 11.399c0 3.94-1.541 7.458-4.203 10.132-2.523 2.533-6.166 4.221-10.09 4.221-3.923 0-7.4263-1.548-10.0887-4.221-2.5223-2.533-4.2039-6.192-4.2039-10.132v-11.399-2.8145z"/><path d="m104.675 90.485c0-1.548 1.261-2.8145 2.803-2.8145 1.541 0 2.802 1.2665 2.802 2.8145v7.7398c0 1.5479-1.261 2.8142-2.802 2.8142-1.542 0-2.803-1.2663-2.803-2.8142z"/></g><path clip-rule="evenodd" d="m107.338 101.039c-1.542 0-2.803-1.2663-2.803-2.8143v-4.9253h-5.8851v8.7246c0 2.393.9809 4.503 2.5221 6.051 1.542 1.548 3.784 2.533 6.026 2.533 2.382 0 4.484-.985 6.025-2.533 1.542-1.548 2.522-3.799 2.522-6.051v-8.7246h-5.885v4.9253c.28 1.548-.981 2.8143-2.522 2.8143z" fill="#d3e1fc" fill-rule="evenodd"/></g></svg>

<svg width="154" height="179" viewBox="0 0 154 179" fill="none" xmlns="http://www.w3.org/2000/svg">
<g clip-path="url(#clip0)">
<path fill-rule="evenodd" clip-rule="evenodd" d="M116.726 11.1171H11.0701V162.535L14.0127 165.491L31.1083 148.322C33.3503 146.071 36.8535 146.071 38.9554 148.322L56.051 165.491L73.1465 148.322C75.3885 146.071 78.8917 146.071 80.9936 148.322L98.0892 165.491L115.185 148.322C117.427 146.071 120.93 146.071 123.032 148.322L140.127 165.491L143.07 162.535V37.4324L116.726 11.1171ZM5.6051 0H118.968C120.51 0 121.911 0.703616 122.892 1.68868L152.318 31.2406C153.439 32.3664 154 33.7736 154 35.1808V164.928C154 166.476 153.299 167.883 152.318 168.868L143.911 177.311C141.669 179.563 138.166 179.563 136.064 177.311L118.968 160.143L101.873 177.311C99.6306 179.563 96.1274 179.563 94.0255 177.311L77.0701 160.284L59.9745 177.452C57.7325 179.704 54.2293 179.704 52.1274 177.452L35.0318 160.284L17.9363 177.452C15.6943 179.704 12.1911 179.704 10.0892 177.452L1.68153 169.009C0.56051 167.883 0 166.476 0 165.068V5.62893C0 2.53302 2.52229 0 5.6051 0Z" fill="#2468EF"/>
<path fill-rule="evenodd" clip-rule="evenodd" d="M5.60498 5.62891H118.968L148.395 35.1808V164.928L139.987 173.371L118.968 152.403L97.9489 173.371L77.0699 152.403L56.0508 173.371L35.0317 152.403L14.0126 173.371L5.60498 164.928V5.62891Z" fill="white"/>
<path fill-rule="evenodd" clip-rule="evenodd" d="M113.363 35.1808V5.62893C113.363 4.2217 113.924 2.81447 115.045 1.68868C117.287 -0.562893 120.79 -0.562893 122.892 1.68868L152.319 31.2406C153.3 32.2256 154 33.6329 154 35.1808C154 38.2767 151.478 40.8098 148.395 40.8098H118.968C115.886 40.8098 113.363 38.2767 113.363 35.1808ZM124.573 19.1384V29.5519H135.083L124.573 19.1384Z" fill="#2468EF"/>
<path fill-rule="evenodd" clip-rule="evenodd" d="M118.968 5.62891V35.1808H148.395L118.968 5.62891Z" fill="#D3E1FC"/>
<path fill-rule="evenodd" clip-rule="evenodd" d="M56.0508 162.957L35.0317 141.849L14.0126 162.957L5.60498 154.514V164.928L14.0126 173.371L35.0317 152.403L56.0508 173.371L77.0699 152.403L97.9489 173.371L118.968 152.403L139.987 173.371L148.395 164.928V154.514L139.987 162.957L118.968 141.849L97.9489 162.957L77.0699 141.849L56.0508 162.957Z" fill="#D3E1FC"/>
<path d="M58.7002 42.4587L37.8926 63.3548L41.8559 67.335L62.6636 46.4389L58.7002 42.4587Z" fill="#2468EF"/>
<path d="M41.8559 42.4612L37.8926 46.4414L58.7002 67.3375L62.6636 63.3573L41.8559 42.4612Z" fill="#2468EF"/>
<path d="M112.09 42.4657L91.2827 63.3619L95.2461 67.3421L116.054 46.446L112.09 42.4657Z" fill="#2468EF"/>
<path d="M95.2471 42.4676L91.2837 46.4478L112.091 67.344L116.055 63.3637L95.2471 42.4676Z" fill="#2468EF"/>
<path d="M35.1722 93.1589C33.6308 93.1589 32.3696 91.8924 32.3696 90.3444C32.3696 88.7965 33.6308 87.53 35.1722 87.53H118.828C120.37 87.53 121.631 88.7965 121.631 90.3444C121.631 91.8924 120.37 93.1589 118.828 93.1589H35.1722Z" fill="#2468EF"/>
<path d="M116.025 93.1587H98.7897V101.884C98.7897 104.276 99.7706 106.387 101.312 107.935C102.853 109.483 105.095 110.468 107.337 110.468C109.72 110.468 111.822 109.483 113.363 107.935C114.904 106.387 115.885 104.135 115.885 101.884V93.1587H116.025ZM95.9871 87.6705H118.828H121.63V90.485V101.884C121.63 105.824 120.089 109.342 117.427 112.016C114.904 114.549 111.261 116.237 107.337 116.237C103.414 116.237 99.9107 114.689 97.2483 112.016C94.726 109.483 93.0444 105.824 93.0444 101.884V90.485V87.6705H95.9871Z" fill="#2468EF"/>
<path d="M104.675 90.485C104.675 88.937 105.936 87.6705 107.478 87.6705C109.019 87.6705 110.28 88.937 110.28 90.485V98.2248C110.28 99.7727 109.019 101.039 107.478 101.039C105.936 101.039 104.675 99.7727 104.675 98.2248V90.485Z" fill="#2468EF"/>
<path fill-rule="evenodd" clip-rule="evenodd" d="M107.338 101.039C105.796 101.039 104.535 99.7727 104.535 98.2247V93.2994H98.6499V102.024C98.6499 104.417 99.6308 106.527 101.172 108.075C102.714 109.623 104.956 110.608 107.198 110.608C109.58 110.608 111.682 109.623 113.223 108.075C114.765 106.527 115.745 104.276 115.745 102.024V93.2994H109.86V98.2247C110.14 99.7727 108.879 101.039 107.338 101.039Z" fill="#D3E1FC"/>
</g>
<defs>
<clipPath id="clip0">
<rect width="154" height="179" fill="white"/>
</clipPath>
</defs>
</svg>
